public/images/aivsman/man-switcher.svg

<svg width="43" height="43" viewBox="0 0 43 43" fill="none" xmlns="http://www.w3.org/2000/svg">
<g filter="url(#filter0_dd_56_18)">
<path fill-rule="evenodd" clip-rule="evenodd" d="M21.5 32C28.9558 32 35 25.9558 35 18.5C35 11.0442 28.9558 5 21.5 5C14.0442 5 8 11.0442 8 18.5C8 25.9558 14.0442 32 21.5 32Z" fill="url(#paint0_linear_56_18)"/>
</g>
<path d="M29 15.8333H24V26.6667H22.3333V21.6667H20.6667V26.6667H19V15.8333H14V14.1667H29M21.5 10C21.942 10 22.366 10.1756 22.6785 10.4882C22.9911 10.8007 23.1667 11.2246 23.1667 11.6667C23.1667 12.1087 22.9911 12.5326 22.6785 12.8452C22.366 13.1577 21.942 13.3333 21.5 13.3333C21.058 13.3333 20.634 13.1577 20.3215 12.8452C20.0089 12.5326 19.8333 12.1087 19.8333 11.6667C19.8333 10.7417 20.575 10 21.5 10Z" fill="white"/>
<defs>
<filter id="filter0_dd_56_18" x="0" y="0" width="43" height="43" filterUnits="userSpaceOnUse" color-interpolation-filters="sRGB">
<feFlood flood-opacity="0" result="BackgroundImageFix"/>
<feColorMatrix in="SourceAlpha" type="matrix" values="0 0 0 0 0 0 0 0 0 0 0 0 0 0 0 0 0 0 127 0" result="hardAlpha"/>
<feOffset dy="3"/>
<feGaussianBlur stdDeviation="0.5"/>
<feColorMatrix type="matrix" values="0 0 0 0 0 0 0 0 0 0 0 0 0 0 0 0 0 0 0.06 0"/>
<feBlend mode="normal" in2="BackgroundImageFix" result="effect1_dropShadow_56_18"/>
<feColorMatrix in="SourceAlpha" type="matrix" values="0 0 0 0 0 0 0 0 0 0 0 0 0 0 0 0 0 0 127 0" result="hardAlpha"/>
<feOffset dy="3"/>
<feGaussianBlur stdDeviation="4"/>
<feColorMatrix type="matrix" values="0 0 0 0 0 0 0 0 0 0 0 0 0 0 0 0 0 0 0.15 0"/>
<feBlend mode="normal" in2="effect1_dropShadow_56_18" result="effect2_dropShadow_56_18"/>
<feBlend mode="normal" in="SourceGraphic" in2="effect2_dropShadow_56_18" result="shape"/>
</filter>
<linearGradient id="paint0_linear_56_18" x1="6.89041" y1="16.448" x2="36.3324" y2="16.6" gradientUnits="userSpaceOnUse">
<stop stop-color="#56C0E5"/>
<stop offset="0.494791" stop-color="#B977E6"/>
<stop offset="1" stop-color="#E55C5E"/>
</linearGradient>
</defs>
</svg>

<svg width="43" height="43" viewBox="0 0 43 43" fill="none" xmlns="http://www.w3.org/2000/svg"><g filter="url(#filter0_dd_56_18)"><path fill-rule="evenodd" clip-rule="evenodd" d="M21.5 32C28.956 32 35 25.956 35 18.5S28.956 5 21.5 5 8 11.044 8 18.5 14.044 32 21.5 32z" fill="url(#paint0_linear_56_18)"/></g><path d="M29 15.833h-5v10.834h-1.667v-5h-1.666v5H19V15.833h-5v-1.666h15M21.5 10a1.666 1.666 0 110 3.333 1.666 1.666 0 010-3.333z" fill="#fff"/><defs><linearGradient id="paint0_linear_56_18" x1="6.89" y1="16.448" x2="36.332" y2="16.6" gradientUnits="userSpaceOnUse"><stop stop-color="#56C0E5"/><stop offset=".495" stop-color="#B977E6"/><stop offset="1" stop-color="#E55C5E"/></linearGradient><filter id="filter0_dd_56_18" x="0" y="0" width="43" height="43" filterUnits="userSpaceOnUse" color-interpolation-filters="sRGB"><feFlood flood-opacity="0" result="BackgroundImageFix"/><feColorMatrix in="SourceAlpha" values="0 0 0 0 0 0 0 0 0 0 0 0 0 0 0 0 0 0 127 0" result="hardAlpha"/><feOffset dy="3"/><feGaussianBlur stdDeviation=".5"/><feColorMatrix values="0 0 0 0 0 0 0 0 0 0 0 0 0 0 0 0 0 0 0.06 0"/><feBlend in2="BackgroundImageFix" result="effect1_dropShadow_56_18"/><feColorMatrix in="SourceAlpha" values="0 0 0 0 0 0 0 0 0 0 0 0 0 0 0 0 0 0 127 0" result="hardAlpha"/><feOffset dy="3"/><feGaussianBlur stdDeviation="4"/><feColorMatrix values="0 0 0 0 0 0 0 0 0 0 0 0 0 0 0 0 0 0 0.15 0"/><feBlend in2="effect1_dropShadow_56_18" result="effect2_dropShadow_56_18"/><feBlend in="SourceGraphic" in2="effect2_dropShadow_56_18" result="shape"/></filter></defs></svg>
